public/images/icon-help.svg

<?xml version="1.0" encoding="UTF-8" standalone="no"?>
<svg width="20px" height="20px" viewBox="0 0 20 20" version="1.1" xmlns="http://www.w3.org/2000/svg" xmlns:xlink="http://www.w3.org/1999/xlink" xmlns:sketch="http://www.bohemiancoding.com/sketch/ns">
    <!-- Generator: Sketch 3.3.2 (12043) - http://www.bohemiancoding.com/sketch -->
    <title>Untitled 4</title>
    <desc>Created with Sketch.</desc>
    <defs></defs>
    <g id="Page-1" stroke="none" stroke-width="1" fill="none" fill-rule="evenodd" sketch:type="MSPage">
        <circle id="Oval-1" fill="#3F454C" sketch:type="MSShapeGroup" cx="10" cy="10" r="10"></circle>
        <path d="M8.912,13.25 L10.788,13.25 L10.788,15 L8.912,15 L8.912,13.25 Z M6.686,8.182 C6.686,7.6686641 6.76299923,7.2020021 6.917,6.782 C7.07100077,6.3619979 7.29499853,6.00266816 7.589,5.704 C7.88300147,5.40533184 8.23766459,5.17433415 8.653,5.011 C9.06833541,4.84766585 9.5326641,4.766 10.046,4.766 C10.4753355,4.766 10.8743315,4.82899937 11.243,4.955 C11.6116685,5.08100063 11.9336653,5.26299881 12.209,5.501 C12.4843347,5.73900119 12.7013325,6.03533156 12.86,6.39 C13.0186675,6.74466844 13.098,7.14599776 13.098,7.594 C13.098,7.9206683 13.0630004,8.20299881 12.993,8.441 C12.9229996,8.67900119 12.8296673,8.88433247 12.713,9.057 C12.5963327,9.22966753 12.4633341,9.38366599 12.314,9.519 C12.1646659,9.65433401 12.0153341,9.78733268 11.866,9.918 C11.6886658,10.0673341 11.5253341,10.2119993 11.376,10.352 C11.2266659,10.4920007 11.0960006,10.6483325 10.984,10.821 C10.8719994,10.9936675 10.785667,11.1966655 10.725,11.43 C10.664333,11.6633345 10.634,11.9479983 10.634,12.284 L9.122,12.284 C9.122,11.8733313 9.14299979,11.5256681 9.185,11.241 C9.22700021,10.9563319 9.2946662,10.7066677 9.388,10.492 C9.4813338,10.2773323 9.59566599,10.0883341 9.731,9.925 C9.86633401,9.76166585 10.0273324,9.60066746 10.214,9.442 C10.3633341,9.31133268 10.505666,9.19000056 10.641,9.078 C10.776334,8.96599944 10.8976661,8.84233401 11.005,8.707 C11.1123339,8.57166599 11.196333,8.42000084 11.257,8.252 C11.317667,8.08399916 11.348,7.8833345 11.348,7.65 C11.348,7.3699986 11.2990005,7.12966767 11.201,6.929 C11.1029995,6.72833233 10.9840007,6.56733394 10.844,6.446 C10.7039993,6.32466606 10.5546675,6.23600028 10.396,6.18 C10.2373325,6.12399972 10.0973339,6.096 9.976,6.096 C9.39733044,6.096 8.97033471,6.28499811 8.695,6.663 C8.41966529,7.04100189 8.282,7.54733016 8.282,8.182 L6.686,8.182 Z" id="?" fill="#FFFFFF" sketch:type="MSShapeGroup"></path>
    </g>
</svg>

<?xml version="1.0" encoding="UTF-8" standalone="no"?>
<svg xmlns:sketch="http://www.bohemiancoding.com/sketch/ns" xmlns="http://www.w3.org/2000/svg" height="20px" width="20px" version="1.1" xmlns:xlink="http://www.w3.org/1999/xlink" viewBox="0 0 20 20"><!-- Generator: Sketch 3.3.2 (12043) - http://www.bohemiancoding.com/sketch -->
 <title>Untitled 4</title>
 <desc>Created with Sketch.</desc>
 <g id="Page-1" fill-rule="evenodd" sketch:type="MSPage">
  <circle id="Oval-1" sketch:type="MSShapeGroup" cy="10" cx="10" r="10" fill="#3F454C"/>
  <path id="?" sketch:type="MSShapeGroup" fill="#fff" d="m8.912 13.25h1.876v1.75h-1.876v-1.75zm-2.226-5.068c0-0.5133 0.077-0.98 0.231-1.4s0.378-0.7793 0.672-1.078 0.6487-0.5297 1.064-0.693 0.8797-0.245 1.393-0.245c0.429 0 0.828 0.063 1.197 0.189s0.691 0.308 0.966 0.546 0.492 0.5343 0.651 0.889 0.238 0.756 0.238 1.204c0 0.3267-0.035 0.609-0.105 0.847s-0.163 0.4433-0.28 0.616-0.25 0.3267-0.399 0.462-0.299 0.2683-0.448 0.399c-0.177 0.149-0.341 0.294-0.49 0.434s-0.28 0.296-0.392 0.469-0.198 0.376-0.259 0.609-0.091 0.518-0.091 0.854h-1.512c0-0.411 0.021-0.758 0.063-1.043s0.1097-0.534 0.203-0.749 0.2077-0.404 0.343-0.567c0.1353-0.1633 0.296-0.3243 0.483-0.483 0.149-0.1307 0.292-0.252 0.427-0.364s0.257-0.2357 0.364-0.371 0.191-0.287 0.252-0.455 0.091-0.3687 0.091-0.602c0-0.28-0.049-0.5203-0.147-0.721s-0.217-0.3617-0.357-0.483-0.289-0.21-0.448-0.266-0.299-0.084-0.42-0.084c-0.5787 0-1.0057 0.189-1.281 0.567s-0.413 0.8843-0.413 1.519h-1.596z"/>
 </g>
</svg>
